X: 1
T:June Rollo's Ronnie
M:C|
L:1/8
Q:80
C:Michael Grey/Bruce Gandy (1,3/2,4)
S:Hornpipe
K:HP
|: {g}e3/4d/4|
{g}c3/4e/4{A}e3/4d/4{g}c3/4B/4{g}A3/4{d}c/4|
{g}e3/4a/4{g}a3/4f/4{a}g3/4f/4{g}e3/4c/4|  !
{gdedc}d{g}B3/4c/4{g}d3/4B/4{g}G3/4c/4|
{gdedc}d{g}B3/4c/4{g}d3/4f/4{g}e3/4d/4{g}c3/4e/4{A}e3/4d/4{g}c3/4B/4{g}A
3/4{d}c/4|
{g}e3/4a/4{g}a3/4f/4{a}g3/4f/4{g}e3/4c/4|  !
{g}((3d3/4e/4{g}d/2c/2B/2){g}G3/4g/4{a}f3/4d/4|
{g}e3/4A/4{gAGAG}A{g}A:| |:
{g}((3e/2f/2g/2)|  !
a3/4e/4{g}c3/4e/4{A}e3/4A/4{gAGAG}A|
{g}c3/4e/4a3/4f/4{a}g3/4f/4{g}e3/4c/4|
{gdedc}d{g}B3/4c/4{g}d3/4B/4{g}G3/4c/4|  !
{gdedc}d{g}B3/4c/4{g}((3d3/4f/4{g}e/2f/2g/2)|1 a3/4e/4{g}c3/4e/4{A}e3/4A
/4{gAGAG}A|
{g}c3/4e/4a3/4f/4{a}g3/4f/4{g}e3/4c/4|
{g}((3d3/4e/4{g}d/2c/2B/2){g}G3/4g/4{a}f3/4d/4|  !
{g}e3/4A/4{gAGAG}A{g}A:| |:
{g}e3/4d/4|
{g}c3/4e/4{g}A3/4{d}c/4{g}((3e3/4A/4{g}c/2B/2A/2)|  !
a3/4c/4{gcecG}c{g}((3e3/4a/4e/2d/2c/2)|
{gdedc}d{g}B3/4c/4{g}d3/4B/4{g}G3/4c/4|
{gdedc}d{g}B3/4c/4{g}d3/4f/4{g}e3/4d/4{g}c3/4e/4{g}A3/4{d}c/4{g}((3e3/4A
/4{g}c/2B/2A/2)|  !
a3/4c/4{gcecG}c{g}((3e3/4a/4e/2d/2c/2)|
{g}((3d3/4e/4{g}d/2c/2B/2){g}G3/4g/4{a}f3/4d/4|
{g}e3/4A/4{gAGAG}A{g}A:| |:  !
{g}((3e/2f/2g/2)|
a3/4{g}a/4{g}a3/4f/4{g}e3/4c/4{g}A3/4B/4|
{g}((3c/2B/2A/2){gAGAG}Aa3/4c/4{gcecG}c|  !
{gdedc}d{g}B3/4c/4{g}d3/4B/4{g}G3/4c/4|
{gdedc}d{g}B3/4c/4{g}((3d3/4f/4{g}e/2f/2g/2)|1 a3/4{g}a/4{g}a3/4f/4{g}e3
/4c/4{g}A3/4B/4|
{g}((3c/2B/2A/2){gAGAG}Aa3/4c/4{gcecG}c|  !
{g}((3d3/4e/4{g}d/2c/2B/2){g}G3/4g/4{a}f3/4d/4|
{g}e3/4A/4{gAGAG}A{g}A:|
